svgs/regular/objects-column.svg

<svg xmlns="http://www.w3.org/2000/svg" viewBox="0 0 448 512"><!--! Font Awesome Pro 6.3.0 by @fontawesome - https://fontawesome.com License - https://fontawesome.com/license (Commercial License) Copyright 2023 Fonticons, Inc. --><path d="M48 80V240h96V80H48zM0 80C0 53.5 21.5 32 48 32h96c26.5 0 48 21.5 48 48V240c0 26.5-21.5 48-48 48H48c-26.5 0-48-21.5-48-48V80zM304 272V432h96V272H304zm-48 0c0-26.5 21.5-48 48-48h96c26.5 0 48 21.5 48 48V432c0 26.5-21.5 48-48 48H304c-26.5 0-48-21.5-48-48V272zM144 368H48v64h96V368zM48 320h96c26.5 0 48 21.5 48 48v64c0 26.5-21.5 48-48 48H48c-26.5 0-48-21.5-48-48V368c0-26.5 21.5-48 48-48zM304 80v64h96V80H304zm-48 0c0-26.5 21.5-48 48-48h96c26.5 0 48 21.5 48 48v64c0 26.5-21.5 48-48 48H304c-26.5 0-48-21.5-48-48V80z"/></svg>

<svg xmlns="http://www.w3.org/2000/svg" viewBox="0 0 448 512"><!--! Font Awesome Pro 6.2.0 by @fontawesome - https://fontawesome.com License - https://fontawesome.com/license (Commercial License) Copyright 2022 Fonticons, Inc. --><path d="M0 80C0 53.49 21.49 32 48 32H144C170.5 32 192 53.49 192 80V240C192 266.5 170.5 288 144 288H48C21.49 288 0 266.5 0 240V80zM48 240H144V80H48V240zM256 272C256 245.5 277.5 224 304 224H400C426.5 224 448 245.5 448 272V432C448 458.5 426.5 480 400 480H304C277.5 480 256 458.5 256 432V272zM304 432H400V272H304V432zM144 320C170.5 320 192 341.5 192 368V432C192 458.5 170.5 480 144 480H48C21.49 480 0 458.5 0 432V368C0 341.5 21.49 320 48 320H144zM144 368H48V432H144V368zM256 80C256 53.49 277.5 32 304 32H400C426.5 32 448 53.49 448 80V144C448 170.5 426.5 192 400 192H304C277.5 192 256 170.5 256 144V80zM304 144H400V80H304V144z"/></svg>
